;FLAVOR:Marlin
;TIME:13770
;Filament used: 7.4584m
;Layer height: 0.2
;MINX:56.5
;MINY:35.201
;MINZ:0.2
;MAXX:178.35
;MAXY:179.2
;MAXZ:15
;Generated with Creality Slicer 4.8.2-254
M140 S60
M105
M190 S60
M104 S200
M105
M109 S200
M82 ;absolute extrusion mode

G28 ;Home

G92 E0 ;Reset Extruder
G1 Z2.0 F3000 ;Move Z Axis up
G1 X10.1 Y20 Z0.28 F5000.0 ;Move to start position
G1 X10.1 Y200.0 Z0.28 F1500.0 E15 ;Draw the first line
G1 X10.4 Y200.0 Z0.28 F5000.0 ;Move to side a little
G1 X10.4 Y20 Z0.28 F1500.0 E30 ;Draw the second line
G92 E0 ;Reset Extruder
G1 Z2.0 F3000 ;Move Z Axis up

G92 E0
G92 E0
G1 F3600 E-5
;LAYER_COUNT:75
;LAYER:0
M107
G0 F6000 X58.507 Y39.89 Z0.2
;TYPE:SKIRT
G1 F3600 E0
G1 F1200 X59.078 Y39.146 E0.03119
G1 X59.71 Y38.453 E0.06239
G1 X60.399 Y37.817 E0.09358
G1 X61.14 Y37.242 E0.12477
G1 X61.927 Y36.732 E0.15596
G1 X62.755 Y36.291 E0.18716
G1 X63.617 Y35.922 E0.21835
G1 X64.508 Y35.628 E0.24956
G1 X65.42 Y35.41 E0.28074
G1 X66.348 Y35.272 E0.31195
G1 X67.201 Y35.214 E0.34039
G1 X67.521 Y35.205 E0.35103
G1 X67.83 Y35.201 E0.36131
G1 X78.993 Y35.201 E0.73259
G1 X79.852 Y35.212 E0.76117
G1 X80.789 Y35.265 E0.79238
G1 X81.717 Y35.398 E0.82356
G1 X82.631 Y35.61 E0.85477
G1 X83.523 Y35.898 E0.88595
G1 X84.388 Y36.262 E0.91716
G1 X85.218 Y36.698 E0.94834
G1 X86.009 Y37.203 E0.97956
G1 X86.501 Y37.569 E0.99995
G1 X86.73 Y37.75 E1.00966
G1 X88.554 Y39.222 E1.08762
G1 X90.563 Y40.75 E1.17157
G1 X92.614 Y42.222 E1.25553
G1 X94.68 Y43.619 E1.33848
G1 X96.815 Y44.974 E1.42259
G1 X99.006 Y46.28 E1.50743
G1 X101.173 Y47.49 E1.58998
G1 X103.404 Y48.655 E1.67369
G1 X105.701 Y49.772 E1.75864
G1 X107.965 Y50.795 E1.84127
G1 X110.294 Y51.771 E1.92526
G1 X112.658 Y52.68 E2.0095
G1 X114.999 Y53.507 E2.09208
G1 X117.416 Y54.284 E2.17652
G1 X119.828 Y54.986 E2.26007
G1 X122.267 Y55.621 E2.3439
G1 X123.644 Y55.938 E2.39089
G1 X124.445 Y56.135 E2.41833
G1 X125.345 Y56.398 E2.44952
G1 X125.901 Y56.604 E2.46924
G1 X127.06 Y57.069 E2.51077
G1 X129.415 Y57.976 E2.59471
G1 X131.813 Y58.821 E2.67927
G1 X134.244 Y59.603 E2.76421
G1 X136.62 Y60.294 E2.84651
G1 X139.075 Y60.932 E2.93087
G1 X141.551 Y61.503 E3.01539
G1 X143.984 Y61.989 E3.09791
G1 X146.459 Y62.413 E3.18143
G1 X147.957 Y62.626 E3.23175
G1 X148.717 Y62.746 E3.25734
G1 X149.637 Y62.932 E3.28856
G1 X150.537 Y63.195 E3.31975
G1 X151.411 Y63.535 E3.35094
G1 X152.253 Y63.948 E3.38213
G1 X153.057 Y64.43 E3.41331
G1 X153.817 Y64.98 E3.44451
G1 X154.254 Y65.345 E3.46345
G1 X154.38 Y65.456 E3.46903
G1 X156.405 Y67.186 E3.55762
G1 X158.383 Y68.783 E3.64217
G1 X160.367 Y70.292 E3.72508
G1 X162.43 Y71.772 E3.80953
G1 X164.487 Y73.161 E3.89208
G1 X166.635 Y74.525 E3.97671
G1 X168.808 Y75.819 E4.06083
G1 X170.988 Y77.036 E4.14387
G1 X171.472 Y77.289 E4.16203
G1 X172.482 Y77.836 E4.20024
G1 X173.287 Y78.318 E4.23144
G1 X174.048 Y78.866 E4.26263
G1 X175.062 Y79.771 E4.30784
G1 X175.158 Y79.868 E4.31238
G1 X175.789 Y80.562 E4.34357
G1 X176.358 Y81.308 E4.37478
G1 X176.862 Y82.099 E4.40597
G1 X177.297 Y82.93 E4.43717
G1 X177.659 Y83.795 E4.46836
G1 X177.946 Y84.688 E4.49956
G1 X178.156 Y85.602 E4.53075
G1 X178.287 Y86.531 E4.56195
G1 X178.334 Y87.235 E4.58542
G1 X178.344 Y87.609 E4.59786
G1 X178.35 Y88.132 E4.61526
G1 X178.349 Y143.104 E6.44364
G1 X178.339 Y143.807 E6.46702
G1 X178.286 Y144.744 E6.49824
G1 X178.153 Y145.672 E6.52942
G1 X177.941 Y146.586 E6.56062
G1 X177.653 Y147.478 E6.5918
G1 X177.289 Y148.343 E6.62301
G1 X176.853 Y149.173 E6.6542
G1 X176.348 Y149.964 E6.68541
G1 X175.778 Y150.708 E6.71658
G1 X175.146 Y151.401 E6.74778
G1 X174.731 Y151.798 E6.76688
G1 X173.811 Y152.632 E6.80818
G1 X173.255 Y153.123 E6.83285
G1 X171.457 Y154.805 E6.91474
G1 X169.659 Y156.586 E6.99891
G1 X167.909 Y158.419 E7.0832
G1 X166.24 Y160.269 E7.16607
G1 X164.611 Y162.183 E7.24967
G1 X163.011 Y164.174 E7.33462
G1 X161.505 Y166.16 E7.41752
G1 X160.039 Y168.21 E7.50135
G1 X158.646 Y170.281 E7.58436
G1 X157.286 Y172.43 E7.66895
G1 X156.783 Y173.273 E7.7016
G1 X156.359 Y173.961 E7.72848
G1 X155.833 Y174.738 E7.75968
G1 X155.243 Y175.467 E7.79088
G1 X154.593 Y176.143 E7.82207
G1 X153.888 Y176.762 E7.85327
G1 X153.133 Y177.318 E7.88446
G1 X152.333 Y177.807 E7.91564
G1 X151.494 Y178.227 E7.94685
G1 X150.623 Y178.574 E7.97803
G1 X149.725 Y178.846 E8.00924
G1 X148.808 Y179.039 E8.04041
G1 X147.877 Y179.155 E8.07161
G1 X147.333 Y179.185 E8.08973
G1 X147.009 Y179.195 E8.10052
G1 X146.67 Y179.2 E8.11179
G1 X114.751 Y179.199 E9.17342
G1 X114.047 Y179.189 E9.19684
G1 X113.11 Y179.136 E9.22805
G1 X112.182 Y179.003 E9.25924
G1 X111.268 Y178.791 E9.29044
G1 X110.376 Y178.503 E9.32162
G1 X109.511 Y178.139 E9.35283
G1 X108.681 Y177.703 E9.38401
G1 X107.891 Y177.198 E9.4152
G1 X107.414 Y176.845 E9.43494
G1 X106.958 Y176.487 E9.45422
G1 X104.897 Y174.919 E9.54035
G1 X102.85 Y173.451 E9.62413
G1 X100.762 Y172.042 E9.70791
G1 X98.633 Y170.69 E9.7918
G1 X96.461 Y169.396 E9.87589
G1 X94.284 Y168.182 E9.95879
G1 X92.025 Y167.003 E10.04354
G1 X89.773 Y165.909 E10.12681
G1 X87.487 Y164.877 E10.21024
G1 X85.086 Y163.873 E10.29679
G1 X83.903 Y163.397 E10.33921
G1 X82.786 Y162.874 E10.38023
G1 X82.389 Y162.66 E10.39523
G1 X80.106 Y161.468 E10.48089
G1 X77.874 Y160.38 E10.56348
G1 X75.566 Y159.338 E10.6477
G1 X73.196 Y158.344 E10.73318
G1 X70.726 Y157.394 E10.8212
G1 X70.483 Y157.304 E10.82982
G1 X69.619 Y156.941 E10.86099
G1 X68.788 Y156.505 E10.8922
G1 X67.998 Y156 E10.92339
G1 X67.253 Y155.43 E10.95459
G1 X66.56 Y154.798 E10.98578
G1 X65.923 Y154.11 E11.01697
G1 X65.347 Y153.369 E11.04818
G1 X64.836 Y152.583 E11.07936
G1 X64.394 Y151.756 E11.11055
G1 X64.025 Y150.894 E11.14174
G1 X63.73 Y150.004 E11.17292
G1 X63.511 Y149.091 E11.20415
G1 X63.42 Y148.551 E11.22236
G1 X63.285 Y147.609 E11.25402
G1 X62.893 Y145.128 E11.33756
G1 X62.43 Y142.648 E11.42147
G1 X61.898 Y140.188 E11.50518
G1 X61.305 Y137.776 E11.58779
G1 X60.627 Y135.322 E11.67247
G1 X59.881 Y132.892 E11.75702
G1 X59.082 Y130.529 E11.83998
G1 X58.216 Y128.188 E11.923
G1 X57.782 Y127.119 E11.96137
G1 X57.267 Y125.804 E12.00834
G1 X56.963 Y124.917 E12.03953
G1 X56.735 Y124.007 E12.07073
G1 X56.586 Y123.082 E12.10189
G1 X56.516 Y122.169 E12.13235
G1 X56.506 Y121.781 E12.14526
G1 X56.5 Y121.238 E12.16332
G1 X56.501 Y89.752 E13.21055
G1 X56.511 Y89.041 E13.2342
G1 X56.52 Y88.731 E13.24452
G1 X56.551 Y87.987 E13.26928
G1 X56.624 Y85.377 E13.35612
G1 X56.624 Y82.884 E13.43904
G1 X56.55 Y80.288 E13.52542
G1 X56.512 Y79.251 E13.55993
G1 X56.506 Y78.982 E13.56888
G1 X56.5 Y78.439 E13.58695
G1 X56.501 Y46.708 E14.64232
G1 X56.511 Y46.044 E14.66441
G1 X56.565 Y45.108 E14.69559
G1 X56.699 Y44.18 E14.72678
G1 X56.911 Y43.266 E14.75799
G1 X57.201 Y42.374 E14.78918
G1 X57.565 Y41.51 E14.82036
G1 X58.001 Y40.68 E14.85155
G1 X58.507 Y39.89 E14.88275
G0 F6000 X58.903 Y40.023
G1 F1200 X59.472 Y39.3 E14.91335
G1 X60.102 Y38.628 E14.94399
G1 X60.788 Y38.014 E14.97461
G1 X61.524 Y37.462 E15.00521
G1 X62.306 Y36.975 E15.03585
G1 X63.127 Y36.559 E15.06646
G1 X63.981 Y36.215 E15.09708
G1 X64.862 Y35.946 E15.12772
G1 X65.762 Y35.755 E15.15832
G1 X66.676 Y35.643 E15.18895
G1 X67.212 Y35.614 E15.2068
G1 X67.532 Y35.605 E15.21745
G1 X67.83 Y35.601 E15.22736
G1 X78.993 Y35.601 E15.59865
G1 X79.847 Y35.612 E15.62705
G1 X80.766 Y35.665 E15.65767
G1 X81.677 Y35.798 E15.68829
G1 X82.573 Y36.009 E15.71891
G1 X83.447 Y36.297 E15.74951
G1 X84.294 Y36.66 E15.78016
G1 X85.105 Y37.095 E15.81077
G1 X85.876 Y37.599 E15.84141
G1 X86.254 Y37.883 E15.85713
G1 X86.479 Y38.061 E15.86668
G1 X88.329 Y39.553 E15.94572
G1 X90.311 Y41.061 E16.02856
G1 X92.379 Y42.545 E16.11322
G1 X94.487 Y43.971 E16.19786
G1 X96.601 Y45.313 E16.28115
G1 X98.785 Y46.615 E16.36572
G1 X100.972 Y47.835 E16.44901
G1 X103.25 Y49.025 E16.53449
G1 X105.497 Y50.118 E16.6176
G1 X107.825 Y51.171 E16.70258
G1 X110.174 Y52.154 E16.78727
G1 X112.485 Y53.043 E16.86963
G1 X114.891 Y53.892 E16.95449
G1 X117.286 Y54.663 E17.03817
G1 X119.721 Y55.371 E17.12252
G1 X122.181 Y56.012 E17.20707
G1 X123.718 Y56.367 E17.25953
G1 X124.349 Y56.523 E17.28115
G1 X125.232 Y56.782 E17.31176
G1 X125.752 Y56.975 E17.33021
G1 X126.916 Y57.442 E17.37192
G1 X129.305 Y58.362 E17.45707
G1 X131.673 Y59.197 E17.54058
G1 X134.114 Y59.982 E17.62586
G1 X136.504 Y60.676 E17.70864
G1 X138.998 Y61.325 E17.79435
G1 X141.448 Y61.89 E17.87798
G1 X143.91 Y62.382 E17.96148
G1 X146.441 Y62.816 E18.04689
G1 X148.068 Y63.048 E18.10156
G1 X148.655 Y63.141 E18.12132
G1 X149.557 Y63.324 E18.15194
G1 X150.44 Y63.585 E18.18256
G1 X151.297 Y63.922 E18.21319
G1 X152.121 Y64.331 E18.24379
G1 X152.907 Y64.811 E18.27442
G1 X153.99 Y65.645 E18.31988
G1 X154.155 Y65.79 E18.32719
G1 X156.177 Y67.518 E18.41565
G1 X158.118 Y69.084 E18.4986
G1 X160.131 Y70.615 E18.58272
G1 X162.202 Y72.101 E18.6675
G1 X164.27 Y73.498 E18.7505
G1 X166.421 Y74.863 E18.83523
G1 X168.588 Y76.154 E18.91913
G1 X170.815 Y77.396 E19.00394
G1 X171.282 Y77.641 E19.02148
G1 X172.292 Y78.188 E19.05968
G1 X173.082 Y78.661 E19.09031
G1 X173.827 Y79.201 E19.12091
G1 X174.778 Y80.053 E19.16338
G1 X174.874 Y80.15 E19.16792
G1 X175.493 Y80.831 E19.19853
G1 X176.05 Y81.564 E19.22915
G1 X176.541 Y82.343 E19.25977
G1 X176.963 Y83.161 E19.29039
G1 X177.312 Y84.013 E19.32101
G1 X177.587 Y84.892 E19.35164
G1 X177.784 Y85.791 E19.38225
G1 X177.902 Y86.704 E19.41287
G1 X177.934 Y87.248 E19.431
G1 X177.944 Y87.614 E19.44318
G1 X177.95 Y88.132 E19.46041
G1 X177.949 Y143.099 E21.28862
G1 X177.939 Y143.802 E21.312
G1 X177.886 Y144.721 E21.34262
G1 X177.753 Y145.632 E21.37324
G1 X177.542 Y146.528 E21.40385
G1 X177.254 Y147.402 E21.43446
G1 X176.891 Y148.249 E21.46511
G1 X176.456 Y149.06 E21.49572
G1 X175.952 Y149.831 E21.52636
G1 X175.384 Y150.555 E21.55696
G1 X174.463 Y151.501 E21.60088
G1 X173.546 Y152.332 E21.64204
G1 X173 Y152.814 E21.66626
G1 X171.185 Y154.512 E21.74893
G1 X169.371 Y156.309 E21.83385
G1 X167.606 Y158.158 E21.91887
G1 X165.955 Y159.988 E22.00085
G1 X164.279 Y161.958 E22.08687
G1 X162.713 Y163.905 E22.16998
G1 X161.177 Y165.931 E22.25454
G1 X159.71 Y167.983 E22.33844
G1 X158.308 Y170.065 E22.42192
G1 X156.947 Y172.217 E22.50661
G1 X156.528 Y172.922 E22.53389
G1 X156.018 Y173.751 E22.56626
G1 X155.501 Y174.513 E22.59689
G1 X154.921 Y175.228 E22.62751
G1 X154.28 Y175.889 E22.65813
G1 X153.584 Y176.492 E22.68876
G1 X152.839 Y177.033 E22.71939
G1 X152.05 Y177.507 E22.75
G1 X151.222 Y177.91 E22.78063
G1 X150.363 Y178.24 E22.81123
G1 X149.478 Y178.495 E22.84187
G1 X148.575 Y178.671 E22.87246
G1 X147.321 Y178.785 E22.91435
G1 X146.997 Y178.795 E22.92513
G1 X146.67 Y178.8 E22.936
G1 X114.756 Y178.799 E23.99747
G1 X114.052 Y178.789 E24.02089
G1 X113.133 Y178.736 E24.0515
G1 X112.222 Y178.603 E24.08212
G1 X111.326 Y178.392 E24.11274
G1 X110.452 Y178.104 E24.14335
G1 X109.606 Y177.741 E24.17397
G1 X108.794 Y177.306 E24.2046
G1 X107.661 Y176.53 E24.25028
G1 X107.197 Y176.166 E24.26989
G1 X105.133 Y174.596 E24.35615
G1 X103.078 Y173.122 E24.44026
G1 X100.979 Y171.705 E24.52449
G1 X98.847 Y170.351 E24.60849
G1 X96.681 Y169.061 E24.69234
G1 X94.457 Y167.82 E24.77705
G1 X92.234 Y166.661 E24.86043
G1 X89.934 Y165.543 E24.94549
G1 X87.64 Y164.507 E25.02921
G1 X85.24 Y163.504 E25.11573
G1 X84.052 Y163.026 E25.15832
G1 X82.976 Y162.522 E25.19784
G1 X82.544 Y162.289 E25.21416
G1 X80.316 Y161.126 E25.29775
G1 X78.02 Y160.007 E25.38271
G1 X75.723 Y158.969 E25.46654
G1 X73.369 Y157.982 E25.55144
G1 X70.831 Y157.006 E25.64188
G1 X70.622 Y156.929 E25.64929
G1 X69.774 Y156.572 E25.67989
G1 X68.96 Y156.142 E25.71051
G1 X68.186 Y155.643 E25.74114
G1 X67.458 Y155.079 E25.77177
G1 X66.782 Y154.454 E25.80239
G1 X66.163 Y153.773 E25.833
G1 X65.605 Y153.041 E25.86361
G1 X65.113 Y152.263 E25.89423
G1 X64.69 Y151.445 E25.92486
G1 X64.34 Y150.593 E25.95549
G1 X64.065 Y149.715 E25.9861
G1 X63.816 Y148.495 E26.02751
G1 X63.686 Y147.589 E26.05795
G1 X63.288 Y145.064 E26.14297
G1 X62.819 Y142.555 E26.22787
G1 X62.293 Y140.122 E26.31066
G1 X61.685 Y137.647 E26.39542
G1 X61.007 Y135.193 E26.4801
G1 X60.27 Y132.794 E26.56357
G1 X59.46 Y130.399 E26.64766
G1 X58.582 Y128.025 E26.73185
G1 X58.155 Y126.973 E26.76961
G1 X57.64 Y125.658 E26.81658
G1 X57.342 Y124.787 E26.8472
G1 X57.12 Y123.894 E26.87781
G1 X56.977 Y122.984 E26.90845
G1 X56.916 Y122.156 E26.93606
G1 X56.906 Y121.777 E26.94867
G1 X56.9 Y121.238 E26.9666
G1 X56.901 Y89.758 E28.01363
G1 X56.911 Y89.047 E28.03728
G1 X56.919 Y88.748 E28.04723
G1 X56.952 Y87.973 E28.07303
G1 X57.024 Y85.388 E28.15904
G1 X57.024 Y82.873 E28.24269
G1 X56.95 Y80.273 E28.3292
G1 X56.912 Y79.236 E28.36371
G1 X56.906 Y78.978 E28.37229
G1 X56.9 Y78.439 E28.39022
G1 X56.901 Y46.714 E29.4454
G1 X56.911 Y46.05 E29.46749
G1 X56.965 Y45.131 E29.49811
G1 X57.098 Y44.22 E29.52873
G1 X57.31 Y43.324 E29.55935
G1 X57.599 Y42.45 E29.58997
G1 X57.963 Y41.604 E29.6206
G1 X58.398 Y40.793 E29.65121
G1 X58.903 Y40.023 E29.68184
G0 F6000 X59.299 Y40.159
G1 F1200 X59.866 Y39.457 E29.71185
G1 X60.493 Y38.807 E29.74189
G1 X61.176 Y38.215 E29.77195
G1 X61.908 Y37.686 E29.80199
G1 X62.683 Y37.224 E29.832
G1 X63.497 Y36.833 E29.86203
G1 X64.342 Y36.514 E29.89207
G1 X65.212 Y36.272 E29.92211
G1 X66.1 Y36.108 E29.95214
G1 X67.223 Y36.014 E29.98963
G1 X67.543 Y36.005 E30.00027
G1 X67.83 Y36.001 E30.00982
G1 X78.993 Y36.001 E30.3811
G1 X79.841 Y36.012 E30.40931
G1 X80.743 Y36.065 E30.43936
G1 X81.636 Y36.197 E30.46939
G1 X82.514 Y36.408 E30.49942
G1 X83.37 Y36.696 E30.52946
G1 X84.197 Y37.058 E30.55948
G1 X84.989 Y37.492 E30.58952
G1 X86.006 Y38.197 E30.63068
G1 X86.228 Y38.372 E30.64008
G1 X88.081 Y39.867 E30.71927
G1 X90.081 Y41.389 E30.80286
G1 X92.144 Y42.869 E30.88731
G1 X94.279 Y44.312 E30.97302
G1 X96.404 Y45.661 E31.05673
G1 X98.565 Y46.95 E31.14042
G1 X100.813 Y48.205 E31.22606
G1 X103.054 Y49.375 E31.31014
G1 X105.336 Y50.485 E31.39454
G1 X107.655 Y51.533 E31.47918
G1 X110.001 Y52.516 E31.56378
G1 X112.357 Y53.421 E31.64773
G1 X114.773 Y54.275 E31.73295
G1 X117.167 Y55.045 E31.8166
G1 X119.613 Y55.756 E31.90132
G1 X122.063 Y56.394 E31.98552
G1 X123.622 Y56.755 E32.03875
G1 X124.253 Y56.911 E32.06037
G1 X125.119 Y57.166 E32.09039
G1 X125.603 Y57.346 E32.10757
G1 X126.748 Y57.805 E32.1486
G1 X129.177 Y58.741 E32.23518
G1 X131.555 Y59.579 E32.31904
G1 X133.995 Y60.364 E32.40429
G1 X136.429 Y61.071 E32.48859
G1 X138.879 Y61.709 E32.57279
G1 X141.377 Y62.284 E32.65805
G1 X143.842 Y62.777 E32.74166
G1 X146.349 Y63.206 E32.82626
G1 X148.005 Y63.443 E32.8819
G1 X148.592 Y63.536 E32.90166
G1 X149.477 Y63.716 E32.9317
G1 X150.342 Y63.975 E32.96173
G1 X151.182 Y64.308 E32.99179
G1 X151.988 Y64.715 E33.02182
G1 X152.755 Y65.191 E33.05184
G1 X153.726 Y65.946 E33.09275
G1 X153.86 Y66.064 E33.09869
G1 X155.912 Y67.817 E33.18845
G1 X157.87 Y69.397 E33.27214
G1 X159.901 Y70.943 E33.35703
G1 X161.951 Y72.413 E33.44093
G1 X164.079 Y73.85 E33.52634
G1 X166.209 Y75.202 E33.61025
G1 X168.383 Y76.497 E33.69441
G1 X170.6 Y77.734 E33.77885
G1 X171.092 Y77.993 E33.79734
G1 X172.102 Y78.54 E33.83555
G1 X172.876 Y79.005 E33.86558
G1 X173.606 Y79.536 E33.8956
G1 X174.494 Y80.334 E33.93531
G1 X174.59 Y80.431 E33.93985
G1 X175.196 Y81.1 E33.96987
G1 X175.741 Y81.821 E33.99993
G1 X176.219 Y82.586 E34.02993
G1 X176.629 Y83.392 E34.06001
G1 X176.965 Y84.23 E34.09004
G1 X177.226 Y85.094 E34.12006
G1 X177.409 Y85.979 E34.15012
G1 X177.534 Y87.262 E34.19299
G1 X177.544 Y87.619 E34.20487
G1 X177.55 Y88.132 E34.22193
G1 X177.549 Y143.093 E36.04994
G1 X177.539 Y143.796 E36.07333
G1 X177.486 Y144.698 E36.10338
G1 X177.354 Y145.591 E36.13341
G1 X177.143 Y146.469 E36.16344
G1 X176.855 Y147.325 E36.19348
G1 X176.493 Y148.152 E36.2235
