;FLAVOR:Marlin
;TIME:14273
;Filament used: 7.68035m
;Layer height: 0.2
;MINX:44.284
;MINY:55.8
;MINZ:0.2
;MAXX:178.35
;MAXY:179.2
;MAXZ:15
;Generated with Creality Slicer 4.8.2-254
M140 S60
M105
M190 S60
M104 S200
M105
M109 S200
M82 ;absolute extrusion mode

G28 ;Home

G92 E0 ;Reset Extruder
G1 Z2.0 F3000 ;Move Z Axis up
G1 X10.1 Y20 Z0.28 F5000.0 ;Move to start position
G1 X10.1 Y200.0 Z0.28 F1500.0 E15 ;Draw the first line
G1 X10.4 Y200.0 Z0.28 F5000.0 ;Move to side a little
G1 X10.4 Y20 Z0.28 F1500.0 E30 ;Draw the second line
G92 E0 ;Reset Extruder
G1 Z2.0 F3000 ;Move Z Axis up

G92 E0
G92 E0
G1 F3600 E-5
;LAYER_COUNT:75
;LAYER:0
M107
G0 F6000 X67.998 Y71.624 Z0.2
;TYPE:SKIRT
G1 F3600 E0
G1 F1200 X68.425 Y71.26 E0.01866
G1 X69.62 Y70.292 E0.06981
G1 X69.885 Y70.083 E0.08104
G1 X71.804 Y68.477 E0.16427
G1 X73.702 Y66.797 E0.24857
G1 X75.529 Y65.084 E0.33187
G1 X77.323 Y63.304 E0.41593
G1 X79.068 Y61.47 E0.50012
G1 X79.251 Y61.269 E0.50916
G1 X80.099 Y60.358 E0.55056
G1 X80.481 Y59.964 E0.56881
G1 X80.941 Y59.503 E0.59047
G1 X81.55 Y58.911 E0.61872
G1 X82.25 Y58.287 E0.64991
G1 X83.002 Y57.726 E0.68112
G1 X83.798 Y57.231 E0.71229
G1 X84.634 Y56.805 E0.7435
G1 X85.503 Y56.452 E0.7747
G1 X86.398 Y56.174 E0.80587
G1 X87.315 Y55.974 E0.83708
G1 X88.244 Y55.852 E0.86825
G1 X88.834 Y55.816 E0.88791
G1 X89.219 Y55.806 E0.90072
G1 X89.762 Y55.8 E0.91878
G1 X121.093 Y55.8 E1.96085
G1 X121.953 Y55.811 E1.98946
G1 X122.89 Y55.864 E2.02067
G1 X123.818 Y55.997 E2.05185
G1 X124.732 Y56.209 E2.08306
G1 X125.891 Y56.6 E2.12374
G1 X127.072 Y57.074 E2.16607
G1 X129.415 Y57.976 E2.24957
G1 X131.813 Y58.821 E2.33414
G1 X134.244 Y59.603 E2.41907
G1 X136.62 Y60.294 E2.50137
G1 X139.075 Y60.932 E2.58574
G1 X141.551 Y61.503 E2.67025
G1 X143.984 Y61.989 E2.75277
G1 X146.459 Y62.413 E2.83629
G1 X147.957 Y62.626 E2.88662
G1 X148.717 Y62.746 E2.91221
G1 X149.637 Y62.932 E2.94343
G1 X150.537 Y63.195 E2.97461
G1 X151.411 Y63.535 E3.0058
G1 X152.253 Y63.948 E3.037
G1 X153.057 Y64.43 E3.06817
G1 X153.817 Y64.98 E3.09938
G1 X154.254 Y65.345 E3.11831
G1 X154.38 Y65.456 E3.1239
G1 X156.405 Y67.186 E3.21248
G1 X158.383 Y68.783 E3.29704
G1 X160.367 Y70.292 E3.37994
G1 X162.43 Y71.772 E3.46439
G1 X164.487 Y73.161 E3.54694
G1 X166.635 Y74.525 E3.63157
G1 X168.808 Y75.819 E3.71569
G1 X170.988 Y77.036 E3.79873
G1 X171.472 Y77.289 E3.8169
G1 X172.482 Y77.836 E3.8551
G1 X173.287 Y78.318 E3.88631
G1 X174.048 Y78.866 E3.9175
G1 X175.062 Y79.771 E3.9627
G1 X175.158 Y79.868 E3.96724
G1 X175.789 Y80.562 E3.99844
G1 X176.358 Y81.308 E4.02964
G1 X176.862 Y82.099 E4.06084
G1 X177.297 Y82.93 E4.09204
G1 X177.659 Y83.795 E4.12323
G1 X177.946 Y84.688 E4.15442
G1 X178.156 Y85.602 E4.18561
G1 X178.287 Y86.531 E4.21682
G1 X178.334 Y87.235 E4.24029
G1 X178.344 Y87.609 E4.25273
G1 X178.35 Y88.132 E4.27013
G1 X178.349 Y143.104 E6.0985
G1 X178.339 Y143.809 E6.12195
G1 X178.286 Y144.745 E6.15313
G1 X178.153 Y145.674 E6.18435
G1 X177.941 Y146.588 E6.21555
G1 X177.653 Y147.48 E6.24673
G1 X177.428 Y148.037 E6.26671
G1 X176.944 Y149.149 E6.30705
G1 X176.802 Y149.461 E6.31845
G1 X175.845 Y151.742 E6.40072
G1 X174.92 Y154.128 E6.48584
G1 X174.085 Y156.488 E6.5691
G1 X173.324 Y158.846 E6.65151
G1 X172.838 Y160.511 E6.7092
G1 X172.64 Y161.156 E6.73164
G1 X172.326 Y162.04 E6.76284
G1 X171.939 Y162.894 E6.79402
G1 X171.48 Y163.712 E6.82522
G1 X170.954 Y164.488 E6.8564
G1 X170.363 Y165.217 E6.88762
G1 X169.712 Y165.892 E6.91881
G1 X169.006 Y166.509 E6.94999
G1 X168.25 Y167.064 E6.98118
G1 X167.449 Y167.553 E7.0124
G1 X166.61 Y167.972 E7.04359
G1 X165.738 Y168.317 E7.07478
G1 X164.84 Y168.587 E7.10597
G1 X163.683 Y168.817 E7.1452
G1 X162.782 Y168.946 E7.17548
G1 X160.267 Y169.343 E7.26016
G1 X157.767 Y169.81 E7.34475
G1 X155.327 Y170.337 E7.42778
G1 X152.908 Y170.932 E7.51063
G1 X150.432 Y171.616 E7.59607
G1 X148.069 Y172.342 E7.67829
G1 X145.64 Y173.163 E7.76357
G1 X143.312 Y174.024 E7.84612
G1 X142.234 Y174.461 E7.88481
G1 X140.956 Y174.963 E7.93048
G1 X140.069 Y175.269 E7.96169
G1 X139.159 Y175.498 E7.9929
G1 X138.234 Y175.648 E8.02406
G1 X137.43 Y175.714 E8.05089
G1 X137.275 Y175.721 E8.05606
G1 X136.913 Y175.731 E8.0681
G1 X136.37 Y175.737 E8.08616
G1 X114.221 Y175.737 E8.82284
G1 X111.613 Y175.774 E8.90959
G1 X109.092 Y175.881 E8.99352
G1 X106.597 Y176.058 E9.07671
G1 X104.097 Y176.306 E9.16027
G1 X101.604 Y176.625 E9.24386
G1 X99.111 Y177.016 E9.32779
G1 X96.621 Y177.479 E9.41203
G1 X94.198 Y178.001 E9.49447
G1 X90.886 Y178.826 E9.60799
G1 X89.813 Y179.037 E9.64436
G1 X89.518 Y179.08 E9.65428
G1 X88.585 Y179.176 E9.68547
G1 X88.065 Y179.194 E9.70278
G1 X87.522 Y179.2 E9.72084
G1 X55.849 Y179.199 E10.77429
G1 X55.151 Y179.19 E10.79751
G1 X54.215 Y179.138 E10.82869
G1 X53.286 Y179.006 E10.85989
G1 X52.372 Y178.796 E10.89109
G1 X51.479 Y178.509 E10.92228
G1 X50.614 Y178.146 E10.95348
G1 X49.783 Y177.712 E10.98467
G1 X48.992 Y177.208 E11.01586
G1 X48.247 Y176.638 E11.04706
G1 X47.553 Y176.007 E11.07826
G1 X46.916 Y175.32 E11.10942
G1 X46.339 Y174.58 E11.14063
G1 X45.827 Y173.794 E11.17183
G1 X45.384 Y172.967 E11.20303
G1 X45.013 Y172.106 E11.23421
G1 X44.717 Y171.216 E11.26541
G1 X44.498 Y170.304 E11.29661
G1 X44.357 Y169.377 E11.32779
G1 X44.297 Y168.488 E11.35743
G1 X44.288 Y168.155 E11.36851
G1 X44.284 Y167.858 E11.37839
G1 X44.285 Y156.513 E11.75572
G1 X44.295 Y155.84 E11.77811
G1 X44.349 Y154.903 E11.80933
G1 X44.483 Y153.975 E11.84051
G1 X44.695 Y153.061 E11.87172
G1 X44.984 Y152.169 E11.90291
G1 X45.348 Y151.305 E11.93409
G1 X45.613 Y150.78 E11.95365
G1 X45.989 Y150.084 E11.97996
G1 X47.192 Y147.778 E12.06647
G1 X48.286 Y145.533 E12.14953
G1 X49.328 Y143.226 E12.23372
G1 X50.3 Y140.902 E12.31751
G1 X51.213 Y138.539 E12.40177
G1 X52.045 Y136.176 E12.48509
G1 X52.814 Y133.787 E12.56856
G1 X53.517 Y131.372 E12.65222
G1 X54.151 Y128.939 E12.73584
G1 X54.718 Y126.479 E12.81981
G1 X55.22 Y123.986 E12.90439
G1 X55.638 Y121.539 E12.98696
G1 X55.994 Y119.04 E13.07091
G1 X56.282 Y116.524 E13.15514
G1 X56.5 Y113.956 E13.24086
G1 X56.539 Y113.415 E13.2589
G1 X56.646 Y112.483 E13.2901
G1 X56.832 Y111.564 E13.32129
G1 X57.095 Y110.663 E13.35251
G1 X57.3 Y110.111 E13.37209
G1 X57.663 Y109.207 E13.40449
G1 X58.018 Y108.36 E13.43504
G1 X58.925 Y106.012 E13.51876
G1 X59.766 Y103.636 E13.60259
G1 X60.536 Y101.25 E13.68598
G1 X61.239 Y98.841 E13.76944
G1 X61.885 Y96.367 E13.85449
G1 X62.447 Y93.941 E13.93731
G1 X62.942 Y91.481 E14.02077
G1 X63.371 Y88.985 E14.10501
G1 X63.725 Y86.512 E14.1881
G1 X64.014 Y83.998 E14.27226
G1 X64.23 Y81.476 E14.35645
G1 X64.343 Y79.515 E14.42179
G1 X64.378 Y79.024 E14.43816
G1 X64.484 Y78.092 E14.46936
G1 X64.67 Y77.173 E14.50054
G1 X64.933 Y76.273 E14.53173
G1 X65.272 Y75.398 E14.56294
G1 X65.684 Y74.556 E14.59412
G1 X66.166 Y73.751 E14.62532
G1 X66.715 Y72.991 E14.65651
G1 X67.327 Y72.28 E14.68771
G1 X67.998 Y71.624 E14.71892
G0 F6000 X68.677 Y71.57
G1 F1200 X69.868 Y70.606 E14.76988
G1 X70.122 Y70.405 E14.78065
G1 X72.083 Y68.765 E14.86568
G1 X73.957 Y67.106 E14.94892
G1 X75.819 Y65.36 E15.03382
G1 X77.593 Y63.599 E15.11696
G1 X79.37 Y61.733 E15.20266
G1 X79.544 Y61.542 E15.21126
G1 X80.392 Y60.631 E15.25265
G1 X80.578 Y60.437 E15.26159
G1 X80.845 Y60.165 E15.27427
G1 X81.342 Y59.669 E15.29762
G1 X81.828 Y59.198 E15.32013
G1 X82.516 Y58.587 E15.35074
G1 X83.255 Y58.037 E15.38138
G1 X84.039 Y57.554 E15.412
G1 X84.861 Y57.141 E15.4426
G1 X85.717 Y56.8 E15.47325
G1 X86.599 Y56.535 E15.50388
G1 X87.5 Y56.348 E15.53448
G1 X88.847 Y56.216 E15.5795
G1 X89.223 Y56.206 E15.59201
G1 X89.762 Y56.2 E15.60994
G1 X121.093 Y56.2 E16.65201
G1 X121.948 Y56.211 E16.68045
G1 X122.867 Y56.264 E16.71107
G1 X123.778 Y56.397 E16.74169
G1 X124.674 Y56.608 E16.77231
G1 X125.742 Y56.972 E16.80984
G1 X126.866 Y57.423 E16.85012
G1 X129.305 Y58.362 E16.93704
G1 X131.673 Y59.197 E17.02056
G1 X134.114 Y59.982 E17.10584
G1 X136.504 Y60.676 E17.18861
G1 X138.998 Y61.325 E17.27433
G1 X141.448 Y61.89 E17.35795
G1 X143.91 Y62.382 E17.44146
G1 X146.441 Y62.816 E17.52687
G1 X148.068 Y63.048 E17.58153
G1 X148.655 Y63.141 E17.6013
G1 X149.557 Y63.324 E17.63191
G1 X150.44 Y63.585 E17.66253
G1 X151.297 Y63.922 E17.69316
G1 X152.121 Y64.331 E17.72376
G1 X152.907 Y64.811 E17.75439
G1 X153.99 Y65.645 E17.79985
G1 X154.155 Y65.79 E17.80716
G1 X156.177 Y67.518 E17.89563
G1 X158.118 Y69.084 E17.97857
G1 X160.118 Y70.606 E18.06217
G1 X162.202 Y72.101 E18.14747
G1 X164.27 Y73.498 E18.23048
G1 X166.421 Y74.863 E18.31521
G1 X168.588 Y76.154 E18.3991
G1 X170.815 Y77.396 E18.48392
G1 X171.282 Y77.641 E18.50146
G1 X172.292 Y78.188 E18.53966
G1 X173.082 Y78.661 E18.57028
G1 X173.827 Y79.201 E18.60089
G1 X174.778 Y80.053 E18.64335
G1 X174.874 Y80.15 E18.64789
G1 X175.493 Y80.831 E18.6785
G1 X176.05 Y81.564 E18.70912
G1 X176.541 Y82.343 E18.73975
G1 X176.963 Y83.161 E18.77036
G1 X177.312 Y84.013 E18.80099
G1 X177.587 Y84.892 E18.83162
G1 X177.784 Y85.791 E18.86223
G1 X177.902 Y86.704 E18.89285
G1 X177.934 Y87.248 E18.91097
G1 X177.944 Y87.614 E18.92315
G1 X177.95 Y88.132 E18.94038
G1 X177.949 Y143.098 E20.76856
G1 X177.939 Y143.803 E20.79201
G1 X177.886 Y144.722 E20.82263
G1 X177.753 Y145.634 E20.85328
G1 X177.542 Y146.53 E20.8839
G1 X177.254 Y147.404 E20.9145
G1 X177.062 Y147.878 E20.93151
G1 X176.65 Y148.826 E20.96589
G1 X176.445 Y149.278 E20.9824
G1 X175.474 Y151.592 E21.06586
G1 X174.546 Y153.988 E21.15132
G1 X173.699 Y156.38 E21.23572
G1 X172.945 Y158.717 E21.3174
G1 X172.5 Y160.246 E21.37036
G1 X172.257 Y161.039 E21.39795
G1 X171.949 Y161.906 E21.42855
G1 X171.567 Y162.744 E21.45918
G1 X171.113 Y163.545 E21.4898
G1 X170.592 Y164.304 E21.52042
G1 X170.007 Y165.015 E21.55105
G1 X169.362 Y165.672 E21.58167
G1 X168.663 Y166.271 E21.61229
G1 X167.914 Y166.807 E21.64292
G1 X167.122 Y167.276 E21.67354
G1 X166.292 Y167.674 E21.70415
G1 X165.431 Y167.999 E21.73476
G1 X164.544 Y168.248 E21.7654
G1 X163.626 Y168.421 E21.79647
G1 X162.74 Y168.548 E21.82624
G1 X160.196 Y168.949 E21.9119
G1 X157.688 Y169.418 E21.99676
G1 X155.253 Y169.944 E22.07962
G1 X152.779 Y170.552 E22.16435
G1 X150.346 Y171.224 E22.24831
G1 X147.929 Y171.967 E22.33241
G1 X145.509 Y172.785 E22.41737
G1 X143.149 Y173.658 E22.50106
G1 X142.087 Y174.089 E22.53918
G1 X140.809 Y174.591 E22.58485
G1 X139.939 Y174.89 E22.61545
G1 X139.045 Y175.113 E22.64609
G1 X138.136 Y175.257 E22.67671
G1 X137.412 Y175.314 E22.70086
G1 X137.257 Y175.321 E22.70602
G1 X136.909 Y175.331 E22.7176
G1 X136.37 Y175.337 E22.73553
G1 X114.215 Y175.337 E23.47241
G1 X111.59 Y175.374 E23.55972
G1 X109.082 Y175.481 E23.64322
G1 X106.562 Y175.659 E23.72724
G1 X104.047 Y175.908 E23.8113
G1 X101.558 Y176.227 E23.89476
G1 X99.006 Y176.628 E23.98068
G1 X96.575 Y177.08 E24.06292
G1 X94.078 Y177.617 E24.14787
G1 X90.789 Y178.437 E24.26061
G1 X89.755 Y178.641 E24.29567
G1 X89.46 Y178.684 E24.30558
G1 X88.544 Y178.777 E24.3362
G1 X88.061 Y178.794 E24.35228
G1 X87.522 Y178.8 E24.37021
G1 X55.854 Y178.799 E25.42349
G1 X55.156 Y178.79 E25.44671
G1 X54.237 Y178.738 E25.47732
G1 X53.326 Y178.607 E25.50793
G1 X52.43 Y178.397 E25.53854
G1 X51.555 Y178.11 E25.56917
G1 X50.708 Y177.748 E25.59981
G1 X49.896 Y177.314 E25.63043
G1 X49.125 Y176.812 E25.66103
G1 X48.4 Y176.244 E25.69166
G1 X47.727 Y175.615 E25.7223
G1 X47.112 Y174.931 E25.75289
G1 X46.558 Y174.196 E25.78351
G1 X46.07 Y173.415 E25.81414
G1 X45.651 Y172.595 E25.84477
G1 X45.305 Y171.742 E25.87538
G1 X45.035 Y170.862 E25.906
G1 X44.842 Y169.961 E25.93664
G1 X44.728 Y169.048 E25.96725
G1 X44.697 Y168.477 E25.98627
G1 X44.688 Y168.144 E25.99735
G1 X44.684 Y167.858 E26.00686
G1 X44.685 Y156.519 E26.384
G1 X44.695 Y155.846 E26.40638
G1 X44.749 Y154.926 E26.43703
G1 X44.882 Y154.015 E26.46766
G1 X45.094 Y153.119 E26.49828
G1 X45.382 Y152.245 E26.52889
G1 X45.746 Y151.399 E26.55952
G1 X45.965 Y150.969 E26.57557
G1 X46.374 Y150.211 E26.60422
G1 X47.535 Y147.988 E26.68763
G1 X48.659 Y145.678 E26.77307
G1 X49.69 Y143.396 E26.85636
G1 X50.671 Y141.051 E26.9409
G1 X51.599 Y138.65 E27.02652
G1 X52.421 Y136.317 E27.10879
G1 X53.19 Y133.926 E27.19233
G1 X53.905 Y131.47 E27.2774
G1 X54.542 Y129.024 E27.36147
G1 X55.106 Y126.577 E27.44499
G1 X55.613 Y124.062 E27.53033
G1 X56.035 Y121.592 E27.61367
G1 X56.389 Y119.11 E27.69706
G1 X56.679 Y116.567 E27.78218
G1 X56.902 Y113.947 E27.86964
G1 X56.938 Y113.443 E27.88645
G1 X57.044 Y112.529 E27.91705
G1 X57.228 Y111.627 E27.94767
G1 X57.491 Y110.744 E27.97831
G1 X57.671 Y110.26 E27.99549
G1 X58.032 Y109.362 E28.02768
G1 X58.389 Y108.511 E28.05837
G1 X59.299 Y106.154 E28.14241
G1 X60.148 Y103.756 E28.22702
G1 X60.915 Y101.379 E28.31009
G1 X61.624 Y98.948 E28.39431
G1 X62.267 Y96.487 E28.47891
G1 X62.848 Y93.98 E28.56451
G1 X63.335 Y91.555 E28.64677
G1 X63.764 Y89.067 E28.73075
G1 X64.125 Y86.544 E28.81552
G1 X64.412 Y84.042 E28.89928
G1 X64.627 Y81.535 E28.98297
G1 X64.742 Y79.543 E29.04933
G1 X64.777 Y79.052 E29.0657
G1 X64.882 Y78.138 E29.0963
G1 X65.066 Y77.236 E29.12692
G1 X65.328 Y76.353 E29.15756
G1 X65.666 Y75.496 E29.1882
G1 X66.076 Y74.672 E29.21881
G1 X66.557 Y73.887 E29.24943
G1 X67.103 Y73.146 E29.28004
G1 X67.712 Y72.456 E29.31065
G1 X68.677 Y71.57 E29.35423
G0 F6000 X68.928 Y71.881
G1 F1200 X70.116 Y70.92 E29.40505
G1 X70.382 Y70.71 E29.41632
G1 X72.322 Y69.087 E29.50045
G1 X74.25 Y67.38 E29.58609
G1 X76.092 Y65.653 E29.67008
G1 X77.865 Y63.893 E29.75317
G1 X79.672 Y61.996 E29.8403
G1 X79.837 Y61.814 E29.84848
G1 X80.685 Y60.903 E29.88987
G1 X80.863 Y60.716 E29.89846
G1 X81.128 Y60.448 E29.91099
G1 X81.62 Y59.956 E29.93414
G1 X82.106 Y59.485 E29.95665
G1 X82.782 Y58.886 E29.98669
G1 X83.508 Y58.349 E30.01672
G1 X84.279 Y57.878 E30.04677
G1 X85.088 Y57.478 E30.07679
G1 X85.93 Y57.15 E30.10684
G1 X86.797 Y56.898 E30.13687
G1 X87.683 Y56.724 E30.1669
G1 X88.861 Y56.616 E30.20625
G1 X89.228 Y56.606 E30.21846
G1 X89.762 Y56.6 E30.23622
G1 X121.093 Y56.6 E31.27829
G1 X121.942 Y56.611 E31.30653
G1 X122.843 Y56.664 E31.33655
G1 X123.737 Y56.796 E31.36661
G1 X124.615 Y57.007 E31.39664
G1 X125.593 Y57.343 E31.43104
G1 X126.697 Y57.786 E31.4706
G1 X129.177 Y58.741 E31.55899
G1 X131.555 Y59.579 E31.64285
G1 X133.995 Y60.364 E31.72811
G1 X136.429 Y61.071 E31.81241
G1 X138.879 Y61.709 E31.89661
G1 X141.377 Y62.284 E31.98187
G1 X143.842 Y62.777 E32.06548
G1 X146.349 Y63.206 E32.15007
G1 X148.005 Y63.443 E32.20571
G1 X148.592 Y63.536 E32.22548
G1 X149.477 Y63.716 E32.25552
G1 X150.342 Y63.975 E32.28555
G1 X151.182 Y64.308 E32.3156
G1 X151.988 Y64.715 E32.34564
G1 X152.755 Y65.191 E32.37566
G1 X153.726 Y65.946 E32.41657
G1 X153.86 Y66.064 E32.42251
G1 X155.912 Y67.817 E32.51227
G1 X157.87 Y69.397 E32.59595
G1 X159.901 Y70.943 E32.68085
G1 X161.951 Y72.413 E32.76475
G1 X164.079 Y73.85 E32.85015
G1 X166.209 Y75.202 E32.93406
G1 X168.383 Y76.497 E33.01823
G1 X170.6 Y77.734 E33.10267
G1 X171.092 Y77.993 E33.12116
G1 X172.102 Y78.54 E33.15936
G1 X172.876 Y79.005 E33.18939
G1 X173.606 Y79.536 E33.21942
G1 X174.494 Y80.334 E33.25913
G1 X174.59 Y80.431 E33.26367
G1 X175.196 Y81.1 E33.29369
G1 X175.741 Y81.821 E33.32375
G1 X176.219 Y82.586 E33.35375
G1 X176.629 Y83.392 E33.38383
G1 X176.965 Y84.23 E33.41386
G1 X177.226 Y85.094 E33.44388
G1 X177.409 Y85.979 E33.47394
G1 X177.534 Y87.262 E33.51681
G1 X177.544 Y87.619 E33.52869
G1 X177.55 Y88.132 E33.54575
G1 X177.549 Y143.093 E35.37376
G1 X177.539 Y143.798 E35.39721
G1 X177.486 Y144.699 E35.42723
G1 X177.354 Y145.593 E35.45729
G1 X177.143 Y146.471 E35.48732
G1 X176.695 Y147.719 E35.53143
G1 X176.283 Y148.667 E35.5658
G1 X176.084 Y149.107 E35.58187
G1 X175.091 Y151.472 E35.66718
G1 X174.172 Y153.846 E35.75185
